build/images/img/grid.svg

<svg xmlns="http://www.w3.org/2000/svg" width="20" height="20"><path d="M19.526 19.903H.474a.417.417 0 01-.415-.418V.514c0-.231.186-.419.415-.419h19.052c.229 0 .415.188.415.419v18.971a.417.417 0 01-.415.418zm-.415-9.485h-.527a.417.417 0 01-.415-.418c0-.231.186-.419.415-.419h.527V.933h-8.696v.418a.416.416 0 11-.83 0V.933H.889v8.648h.527c.229 0 .415.188.415.419a.417.417 0 01-.415.418H.889v8.648h8.696v-.418c0-.231.186-.418.415-.418.229 0 .415.187.415.418v.418h8.696v-8.648zm-8.696.368a.416.416 0 11-.83 0v-.368h-.366A.417.417 0 018.804 10c0-.231.186-.419.415-.419h.366v-.368c0-.231.186-.418.415-.418.229 0 .415.187.415.418v.368h.365c.23 0 .416.188.416.419a.417.417 0 01-.416.418h-.365v.368zm1.926-1.205h1.561c.229 0 .415.188.415.419a.417.417 0 01-.415.418h-1.561a.417.417 0 01-.415-.418c0-.231.186-.419.415-.419zm3.122 0h1.561c.229 0 .415.188.415.419a.417.417 0 01-.415.418h-1.561a.417.417 0 01-.416-.418c0-.231.186-.419.416-.419zM10 8.059a.416.416 0 01-.415-.418V6.068c0-.231.186-.418.415-.418.229 0 .415.187.415.418v1.573a.417.417 0 01-.415.418zm0-3.145a.416.416 0 01-.415-.418V2.923c0-.231.186-.418.415-.418.229 0 .415.187.415.418v1.573a.417.417 0 01-.415.418zm-2.341 5.504H6.098A.417.417 0 015.682 10c0-.231.186-.419.416-.419h1.561c.229 0 .415.188.415.419a.417.417 0 01-.415.418zm-3.122 0H2.976A.417.417 0 012.561 10c0-.231.186-.419.415-.419h1.561c.23 0 .416.188.416.419a.417.417 0 01-.416.418zM10 11.94c.229 0 .415.187.415.418v1.573a.416.416 0 11-.83 0v-1.573c0-.231.186-.418.415-.418zm0 3.145c.229 0 .415.187.415.418v1.572a.417.417 0 01-.415.419.416.416 0 01-.415-.419v-1.572c0-.231.186-.418.415-.418z"/></svg>

<svg 
 xmlns="http://www.w3.org/2000/svg"
 xmlns:xlink="http://www.w3.org/1999/xlink"
 width="20px" height="20px">
<path fill="#000000"
 d="M19.526,19.903 L0.474,19.903 C0.245,19.903 0.059,19.716 0.059,19.485 L0.059,0.514 C0.059,0.283 0.245,0.095 0.474,0.095 L19.526,0.095 C19.755,0.095 19.941,0.283 19.941,0.514 L19.941,19.485 C19.941,19.716 19.755,19.903 19.526,19.903 ZM19.111,10.418 L18.584,10.418 C18.355,10.418 18.169,10.231 18.169,10.000 C18.169,9.769 18.355,9.581 18.584,9.581 L19.111,9.581 L19.111,0.933 L10.415,0.933 L10.415,1.351 C10.415,1.582 10.229,1.769 10.000,1.769 C9.770,1.769 9.585,1.582 9.585,1.351 L9.585,0.933 L0.889,0.933 L0.889,9.581 L1.416,9.581 C1.645,9.581 1.831,9.769 1.831,10.000 C1.831,10.231 1.645,10.418 1.416,10.418 L0.889,10.418 L0.889,19.066 L9.585,19.066 L9.585,18.648 C9.585,18.417 9.771,18.230 10.000,18.230 C10.229,18.230 10.415,18.417 10.415,18.648 L10.415,19.066 L19.111,19.066 L19.111,10.418 ZM10.415,10.786 C10.415,11.017 10.229,11.204 10.000,11.204 C9.770,11.204 9.585,11.017 9.585,10.786 L9.585,10.418 L9.219,10.418 C8.990,10.418 8.804,10.231 8.804,10.000 C8.804,9.769 8.990,9.581 9.219,9.581 L9.585,9.581 L9.585,9.213 C9.585,8.982 9.771,8.795 10.000,8.795 C10.229,8.795 10.415,8.982 10.415,9.213 L10.415,9.581 L10.780,9.581 C11.010,9.581 11.196,9.769 11.196,10.000 C11.196,10.231 11.010,10.418 10.780,10.418 L10.415,10.418 L10.415,10.786 ZM12.341,9.581 L13.902,9.581 C14.131,9.581 14.317,9.769 14.317,10.000 C14.317,10.231 14.131,10.418 13.902,10.418 L12.341,10.418 C12.112,10.418 11.926,10.231 11.926,10.000 C11.926,9.769 12.112,9.581 12.341,9.581 ZM15.463,9.581 L17.024,9.581 C17.253,9.581 17.439,9.769 17.439,10.000 C17.439,10.231 17.253,10.418 17.024,10.418 L15.463,10.418 C15.233,10.418 15.047,10.231 15.047,10.000 C15.047,9.769 15.233,9.581 15.463,9.581 ZM10.000,8.059 C9.770,8.059 9.585,7.872 9.585,7.641 L9.585,6.068 C9.585,5.837 9.771,5.650 10.000,5.650 C10.229,5.650 10.415,5.837 10.415,6.068 L10.415,7.641 C10.415,7.872 10.229,8.059 10.000,8.059 ZM10.000,4.914 C9.770,4.914 9.585,4.727 9.585,4.496 L9.585,2.923 C9.585,2.692 9.771,2.505 10.000,2.505 C10.229,2.505 10.415,2.692 10.415,2.923 L10.415,4.496 C10.415,4.727 10.229,4.914 10.000,4.914 ZM7.659,10.418 L6.098,10.418 C5.868,10.418 5.682,10.231 5.682,10.000 C5.682,9.769 5.868,9.581 6.098,9.581 L7.659,9.581 C7.888,9.581 8.074,9.769 8.074,10.000 C8.074,10.231 7.888,10.418 7.659,10.418 ZM4.537,10.418 L2.976,10.418 C2.747,10.418 2.561,10.231 2.561,10.000 C2.561,9.769 2.747,9.581 2.976,9.581 L4.537,9.581 C4.767,9.581 4.953,9.769 4.953,10.000 C4.953,10.231 4.767,10.418 4.537,10.418 ZM10.000,11.940 C10.229,11.940 10.415,12.127 10.415,12.358 L10.415,13.931 C10.415,14.162 10.229,14.349 10.000,14.349 C9.770,14.349 9.585,14.162 9.585,13.931 L9.585,12.358 C9.585,12.127 9.771,11.940 10.000,11.940 ZM10.000,15.085 C10.229,15.085 10.415,15.272 10.415,15.503 L10.415,17.075 C10.415,17.307 10.229,17.494 10.000,17.494 C9.770,17.494 9.585,17.307 9.585,17.075 L9.585,15.503 C9.585,15.272 9.771,15.085 10.000,15.085 Z"/>
</svg>
